public/svg/twitter.svg

<svg height="23" viewBox="0 0 28 23" width="28" xmlns="http://www.w3.org/2000/svg" xmlns:xlink="http://www.w3.org/1999/xlink"><linearGradient id="a" x1="50%" x2="50%" y1="0%" y2="100%"><stop offset="0" stop-color="#4ebbed"/><stop offset="1" stop-color="#5c6ddd"/></linearGradient><path d="m10.6539987 23c-4.67321276 0-8.36675125-.8123337-10.1338392-2.2282853l-.03439331-.0276304-.0311889-.0310311c-.41976883-.4178566-.55734192-.9660012-.37704426-1.5037312l.01644894-.0446338c.21874977-.5443188.7547294-.9107404 1.33556985-.914141 1.19543329-.0206165 2.2413306-.1623817 3.1904568-.437623-1.51394492-.7005369-2.56561007-1.9135113-3.19131129-3.6691043-.21041846-.547507-.02883909-1.1545255.45608473-1.5164837.11962878-.08948.25485201-.1570682.39797932-.2023395-.84124668-.9662138-1.46267544-2.0656911-1.81066705-3.22850574l-.01089472-.03613203-.00747682-.03698225c-.1181334-.58810234.14611801-1.19278301.63040095-1.45314636.20315526-.11604764.42382767-.1761969.64535452-.1812979-.23883034-.51179998-.41250567-1.03720261-.51547184-1.56579339-.28582736-1.46483615-.04998777-2.9332855.70068284-4.36454012l.17367533-.34559248c.13906847-.2765165.40481526-.47077948.71115035-.52030164.30633515-.04930963.62036066.05143502.83975131.26971517l.31637538.31519909c2.49938696 2.60703425 4.73815409 3.8440259 8.60878597 4.69036626.1728208-1.47822629.8151846-2.8523072 1.8514689-3.93371845 1.2332445-1.28672639 2.8800628-2.00872992 4.6371105-2.03338473h.0115356c1.2819506 0 2.8721588.72816727 3.8338888 1.24166758.8250113-.26865248 1.8189982-.68459627 2.8503692-1.12434466.4825739-.22529401 1.0775135-.12221138 1.4569076.25526235.3719174.37003477.4750971.89182422.2777097 1.39894831-.0749816.20765305-.1600035.41148038-.2546384.6108443.1412047.06440009.2704465.15175467.3796077.2603634.3300473.32837664.4676204.842302.3503415 1.30946829l-.0126038.04442116c-.3952022 1.26717252-1.1544177 2.29927414-2.1584449 2.94710069-.1676939 8.88444815-6.892113 16.05538645-15.1336813 16.05538645zm-8.55922539-3.1381756c1.66518982.9373082 4.83855678 1.5043689 8.55922539 1.5043689 3.5771141 0 6.9527818-1.527961 9.5049337-4.302478 2.5730868-2.7972589 3.9900469-6.511847 3.9900469-10.45959324v-.04442116c0-.35749487.1978148-.68374606.5161127-.85165388.6457818-.34027896 1.1687305-.9198797 1.508818-1.66101199-.3507687.05504826-.7073052-.08501661-.9258413-.37704863-.2539975-.3394288-.2567746-.7978809-.0070495-1.14028524.134796-.18491115.2569882-.37726121.3659359-.57620008-.8905936.37216022-1.7363263.70585038-2.4705479.9275312-.2668149.08034066-.5641779.04888452-.8079215-.08650442-1.307158-.72455402-2.5245945-1.15771367-3.2586025-1.15983906-2.7085237.04123303-4.9107613 2.34922141-4.9107613 5.14754308 0 .289269-.1290282.56047198-.3535458.74432038-.2247311.18363587-.5169672.25717526-.8023672.2010643-4.463008-.87482095-7.10765843-2.18662715-9.85783861-4.93627683-.39413408.93964604-.50179998 1.88609347-.31957973 2.82063852.18478372.9466599.67632981 1.89523272 1.42165986 2.74306088.28326383.32178783.32086145.78215279.09356677 1.14538623-.22644019.36195817-.65689012.53114124-1.07067756.42083221-.32342492-.08629188-.62078788-.1995765-.90277-.34516742.57443174 1.24145495 1.56243726 2.38960425 2.80444035 3.23636965.35995443.2454855.51034489.7030874.36593587 1.1128675-.14462264.4104176-.5485834.6746067-.98522844.6423004-.47573802-.0350693-.89721583-.1249744-1.28515486-.2765165.69641038 1.4110632 1.80917162 2.1874773 3.52349477 2.4841853.40823317.0707763.72610392.3915015.79104525.7980934.065155.4065919-.13714582.8095707-.50308174 1.0027709-1.46118008.7706755-3.0582242 1.1842813-4.98424752 1.2856636z" fill="url(#a)"/></svg>

<?xml version="1.0" encoding="UTF-8"?>
<svg width="28px" height="23px" viewBox="0 0 28 23" version="1.1" xmlns="http://www.w3.org/2000/svg" xmlns:xlink="http://www.w3.org/1999/xlink">
    <title>twitter</title>
    <defs>
        <linearGradient x1="50%" y1="0%" x2="50%" y2="100%" id="linearGradient-1">
            <stop stop-color="#4EBBED" offset="0%"></stop>
            <stop stop-color="#5C6DDD" offset="100%"></stop>
        </linearGradient>
    </defs>
    <g id="Page-1" stroke="none" stroke-width="1" fill="none" fill-rule="evenodd">
        <g id="workers-personnal-desktop" transform="translate(-637.000000, -886.000000)" fill="url(#linearGradient-1)" fill-rule="nonzero">
            <g id="twitter" transform="translate(637.000000, 886.000000)">
                <path d="M10.6539987,23 C5.98078594,23 2.28724745,22.1876663 0.520159504,20.7717147 L0.48576619,20.7440843 L0.454577286,20.7130532 C0.0348084632,20.2951966 -0.102764631,19.747052 0.0775330267,19.209322 L0.0939819699,19.1646882 C0.312731735,18.6203694 0.84871137,18.2539478 1.42955182,18.2505472 C2.62498511,18.2299307 3.67088242,18.0881655 4.62000862,17.8129242 C3.1060637,17.1123873 2.05439855,15.8994129 1.42869733,14.1438199 C1.21827887,13.5963129 1.39985824,12.9892944 1.88478206,12.6273362 C2.00441084,12.5378562 2.13963407,12.470268 2.28276138,12.4249967 C1.4415147,11.4587829 0.82008594,10.3593056 0.472094329,9.19649096 L0.461199607,9.16035893 L0.453722794,9.12337668 C0.33558939,8.53527434 0.599840802,7.93059367 1.08412374,7.67023032 C1.287279,7.55418268 1.50795141,7.49403342 1.72947826,7.48893242 C1.49064792,6.97713244 1.31697259,6.45172981 1.21400642,5.92313903 C0.928179058,4.45830288 1.16401865,2.98985353 1.91468926,1.55859891 L2.08836459,1.21300643 C2.22743306,0.936489925 2.49317985,0.742226949 2.79951494,0.692704789 C3.10585009,0.643395156 3.4198756,0.744139809 3.63926625,0.962419964 L3.95564163,1.27761905 C6.45502859,3.8846533 8.69379572,5.12164495 12.5644276,5.96798531 C12.7372484,4.48975902 13.3796122,3.11567811 14.4158965,2.03426686 C15.649141,0.747540474 17.2959593,0.0255369449 19.053007,0.000882128666 L19.0645426,0.000882128666 C20.3464932,0.000882128666 21.9367014,0.729049402 22.8984314,1.24254971 C23.7234427,0.973897233 24.7174296,0.557953438 25.7488006,0.118205048 C26.2313745,-0.107088963 26.8263141,-0.00400632901 27.2057082,0.373467399 C27.5776256,0.743502171 27.6808053,1.26529162 27.4834179,1.77241571 C27.4084363,1.98006876 27.3234144,2.18389609 27.2287795,2.38326001 C27.3699842,2.4476601 27.499226,2.53501468 27.6083872,2.64362341 C27.9384345,2.97200005 28.0760076,3.48592541 27.9587287,3.9530917 L27.9461249,3.99751286 C27.5509227,5.26468538 26.7917072,6.296787 25.78768,6.94461355 C25.6199861,15.8290617 18.895567,23 10.6539987,23 L10.6539987,23 Z M2.09477331,19.8618244 C3.75996313,20.7991326 6.93333009,21.3661933 10.6539987,21.3661933 C14.2311128,21.3661933 17.6067805,19.8382323 20.1589324,17.0637153 C22.7320192,14.2664564 24.1489793,10.5518683 24.1489793,6.60412206 L24.1489793,6.5597009 C24.1489793,6.20220603 24.3467941,5.87595484 24.665092,5.70804702 C25.3108738,5.36776806 25.8338225,4.78816732 26.17391,4.04703503 C25.8231413,4.10208329 25.4666048,3.96201842 25.2480687,3.6699864 C24.9940712,3.3305576 24.9912941,2.8721055 25.2410192,2.52970116 C25.3758152,2.34479001 25.4980074,2.15243995 25.6069551,1.95350108 C24.7163615,2.3256613 23.8706288,2.65935146 23.1364072,2.88103228 C22.8695923,2.96137294 22.5722293,2.9299168 22.3284857,2.79452786 C21.0213277,2.06997384 19.8038912,1.63681419 19.0698832,1.6346888 C16.3613595,1.67592183 14.1591219,3.98391021 14.1591219,6.78223188 C14.1591219,7.07150088 14.0300937,7.34270386 13.8055761,7.52655226 C13.580845,7.71018813 13.2886089,7.78372752 13.0032089,7.72761656 C8.5402009,6.85279561 5.89555047,5.54098941 3.14537029,2.79133973 C2.75123621,3.73098577 2.64357031,4.6774332 2.82579056,5.61197825 C3.01057428,6.55863815 3.50212037,7.50721097 4.24745042,8.35503913 C4.53071425,8.67682696 4.56831187,9.13719192 4.34101719,9.50042536 C4.114577,9.86238353 3.68412707,10.0315666 3.27033963,9.92125757 C2.94691471,9.83496569 2.64955175,9.72168107 2.36756963,9.57609015 C2.94200137,10.8175451 3.93000689,11.9656944 5.17200998,12.8124598 C5.53196441,13.0579453 5.68235487,13.5155472 5.53794585,13.9253273 C5.39332321,14.3357449 4.98936245,14.599934 4.55271741,14.5676277 C4.07697939,14.5325584 3.65550158,14.4426533 3.26756255,14.2911112 C3.96397293,15.7021744 5.07673417,16.4785885 6.79105732,16.7752965 C7.19929049,16.8460728 7.51716124,17.166798 7.58210257,17.5733899 C7.64725757,17.9799818 7.44495675,18.3829606 7.07902083,18.5761608 C5.61784075,19.3468363 4.02079663,19.7604421 2.09477331,19.8618244 Z" id="Shape"></path>
            </g>
        </g>
    </g>
</svg>
